X: 6
T: Ahuv Sheli (Habibi Ya Nour El Ain)
O: Israel
C: Shata Chamid 2004
F: https://www.youtube.com/watch?v=dK2U-0U0hA4
F: https://www.youtube.com/watch?v=1QNBkX44Sxo
F: https://www.youtube.com/watch?v=B0keBRz1tmQ
M: 7/8
L: 1/8
Q: 1/4=160
K: Gphr
%%MIDI gchord f2zc2cz
%%MIDI program 21
 "Gm" G2           | "Cm" .c3.c2.d2 |\
 "Gm" =B2z.B2.d2   |"Fm".f3.f2.g2   |\
 "Cm"e3-e2zG2      |"Cm" .c3.c2.d2  |
 "Gm" =B2zB2d2     |"Fm"f2zf2g2     |\
 "Eb"e3-e2z2       |"Cm" {cd}c3z_edc|\
 "Gm" B3-B2z2      |dcBA3z          |
 G3FG3             |"Gm" G3FG3-     |\
 G4z3              |:"Cm"c2c2c3     |\
 c2=B2A2G          |"Gm" F2G2A3     |
 G4G3 :: "Cm"c2c2c3|\
 c2=B2A2G          |"Gm"F2G2A3      |\
 G4G3::"Cm" e2e2e2z|
 "Gm" d2d2d2z      | "Cm" c2c2c2z   |\
 "Gm" =B2B2B2z     :|


